icons-rebrand/svg/file-bug-filled.svg

<svg width="32" height="32" viewBox="0 0 32 32" fill="none" xmlns="http://www.w3.org/2000/svg">
<path d="M15.375 21.994H16.625C16.9894 21.9933 17.3387 21.8481 17.5964 21.5904C17.8541 21.3328 17.9992 20.9835 18 20.619V16.83C18 16.6097 17.9126 16.3984 17.757 16.2424C17.6014 16.0865 17.3903 15.9986 17.17 15.998H14.83C14.6097 15.9986 14.3986 16.0865 14.243 16.2424C14.0874 16.3984 14 16.6097 14 16.83V20.618C14.0005 20.9826 14.1456 21.332 14.4033 21.5897C14.6611 21.8475 15.0105 21.9925 15.375 21.993V21.994Z" fill="#0F0F0F"/>
<path fill-rule="evenodd" clip-rule="evenodd" d="M9 2.5H23C24.1931 2.50132 25.3369 2.97585 26.1805 3.81948C27.0241 4.66311 27.4987 5.80693 27.5 7V25C27.4987 26.1931 27.0241 27.3369 26.1805 28.1805C25.3369 29.0241 24.1931 29.4987 23 29.5H9C7.80693 29.4987 6.66311 29.0241 5.81948 28.1805C4.97585 27.3369 4.50132 26.1931 4.5 25V7C4.50132 5.80693 4.97585 4.66311 5.81948 3.81948C6.66311 2.97585 7.80693 2.50132 9 2.5ZM22.483 20.494C22.91 20.814 23.223 21.261 23.377 21.772L23.958 23.712C23.9958 23.8378 24.0084 23.9698 23.9951 24.1005C23.9818 24.2312 23.943 24.358 23.8807 24.4736C23.8184 24.5893 23.734 24.6915 23.6322 24.7746C23.5304 24.8576 23.4133 24.9197 23.2875 24.9575C23.1617 24.9953 23.0297 25.0079 22.899 24.9946C22.7683 24.9813 22.6415 24.9425 22.5259 24.8802C22.4102 24.8179 22.308 24.7335 22.2249 24.6317C22.1419 24.5299 22.0798 24.4128 22.042 24.287L21.46 22.343C21.4306 22.2444 21.3704 22.1578 21.2881 22.0961C21.2058 22.0343 21.1059 22.0007 21.003 22H19.697C19.4311 22.5929 18.9997 23.0965 18.4546 23.4502C17.9095 23.8039 17.2738 23.9927 16.624 23.994H15.375C14.7253 23.9927 14.0898 23.8038 13.5449 23.4501C13 23.0964 12.5687 22.5929 12.303 22H10.996C10.8932 21.9999 10.7932 22.033 10.7108 22.0945C10.6284 22.156 10.5681 22.2424 10.539 22.341L9.959 24.286C9.92138 24.4119 9.85933 24.5291 9.7764 24.631C9.69347 24.7329 9.59128 24.8174 9.47568 24.8798C9.36007 24.9422 9.2333 24.9813 9.10261 24.9947C8.97192 25.0081 8.83987 24.9956 8.714 24.958C8.58813 24.9204 8.4709 24.8583 8.36901 24.7754C8.26711 24.6925 8.18255 24.5903 8.12015 24.4747C8.05775 24.3591 8.01873 24.2323 8.00532 24.1016C7.99191 23.9709 8.00438 23.8389 8.042 23.713L8.623 21.77C8.77736 21.26 9.0911 20.813 9.51818 20.4944C9.94527 20.1759 10.4632 20.0026 10.996 20H12V18.997H10.9C10.6391 18.9976 10.3807 18.9465 10.1397 18.8466C9.89872 18.7467 9.67992 18.6 9.496 18.415C9.05424 17.8046 8.61656 17.1913 8.183 16.575C8.03023 16.3582 7.96986 16.0896 8.01515 15.8282C8.06044 15.5669 8.20769 15.3343 8.4245 15.1815C8.64131 15.0287 8.90993 14.9684 9.17127 15.0136C9.4326 15.0589 9.66524 15.2062 9.818 15.423L10.928 17L12 16.998V16.831C12.0014 16.1146 12.2761 15.4258 12.768 14.905L12.09 13.413C11.9897 13.1732 11.9867 12.9037 12.0817 12.6617C12.1767 12.4197 12.3622 12.2242 12.5988 12.1167C12.8355 12.0091 13.1048 11.998 13.3495 12.0856C13.5943 12.1732 13.7953 12.3527 13.91 12.586L14.564 14.026C14.595 14.024 14.626 14.019 14.657 14.016C14.714 14.007 14.771 13.999 14.831 13.999H17.171C17.229 13.999 17.285 14.007 17.341 14.015L17.434 14.026L18.09 12.586C18.1424 12.4635 18.2188 12.3528 18.3146 12.2602C18.4104 12.1677 18.5238 12.0952 18.648 12.0471C18.7722 11.999 18.9048 11.9762 19.0379 11.98C19.1711 11.9838 19.3021 12.0142 19.4234 12.0693C19.5447 12.1245 19.6537 12.2033 19.744 12.3012C19.8344 12.3991 19.9043 12.514 19.9496 12.6393C19.995 12.7645 20.0148 12.8976 20.008 13.0306C20.0012 13.1637 19.9679 13.294 19.91 13.414L19.232 14.904C19.724 15.424 19.999 16.114 20 16.831V17H21.078L22.183 15.432C22.3358 15.2152 22.5684 15.0679 22.8297 15.0226C23.0911 14.9774 23.3597 15.0377 23.5765 15.1905C23.7933 15.3433 23.9406 15.5759 23.9859 15.8372C24.0311 16.0986 23.9708 16.3672 23.818 16.584C23.818 16.584 22.543 18.384 22.502 18.425C22.3179 18.6084 22.0993 18.7537 21.8589 18.8523C21.6185 18.951 21.3609 19.0012 21.101 19H20.001V20H21.003C21.5365 20.0019 22.0553 20.175 22.483 20.494Z" fill="#0F0F0F"/>
</svg>

<svg id="Layer_1" data-name="Layer 1" xmlns="http://www.w3.org/2000/svg" viewBox="0 0 32 32"><defs><style>.cls-1,.cls-2{fill:#0f0f0f;}.cls-2{fill-rule:evenodd;}</style></defs><path class="cls-1" d="M15.375,21.994h1.25A1.379,1.379,0,0,0,18,20.619V16.83A.831.831,0,0,0,17.17,16H14.83a.831.831,0,0,0-.83.832v3.788a1.376,1.376,0,0,0,1.375,1.375Z"/><path class="cls-2" d="M26.18,3.819A4.5,4.5,0,0,0,23,2.5H9A4.5,4.5,0,0,0,4.5,7V25A4.505,4.505,0,0,0,9,29.5H23A4.507,4.507,0,0,0,27.5,25V7A4.5,4.5,0,0,0,26.18,3.819Zm-2.3,20.655a1.018,1.018,0,0,1-.249.3A1,1,0,0,1,22.9,25a1.007,1.007,0,0,1-.674-.363,1.006,1.006,0,0,1-.183-.345l-.582-1.944A.48.48,0,0,0,21,22H19.7a3.375,3.375,0,0,1-3.073,1.994H15.375A3.375,3.375,0,0,1,12.3,22H11a.475.475,0,0,0-.457.341l-.58,1.945a1.006,1.006,0,0,1-.483.594A1.025,1.025,0,0,1,9.1,25a1,1,0,0,1-.983-.52,1.025,1.025,0,0,1-.115-.373,1,1,0,0,1,.037-.389l.581-1.943A2.49,2.49,0,0,1,11,20h1V19H10.9a1.97,1.97,0,0,1-1.4-.582q-.663-.915-1.313-1.84a1,1,0,0,1,1.635-1.152L10.928,17,12,17v-.167a2.812,2.812,0,0,1,.768-1.926l-.678-1.492a1,1,0,0,1,1.82-.827l.654,1.44c.031,0,.062-.007.093-.01A1.1,1.1,0,0,1,14.831,14h2.34a1.194,1.194,0,0,1,.17.016l.093.011.656-1.44a1,1,0,0,1,1.654-.285,1.021,1.021,0,0,1,.206.338,1,1,0,0,1-.04.775l-.678,1.49A2.81,2.81,0,0,1,20,16.831V17h1.078l1.105-1.568a1,1,0,1,1,1.635,1.152s-1.275,1.8-1.316,1.841A1.975,1.975,0,0,1,21.1,19H20v1h1a2.486,2.486,0,0,1,2.374,1.772l.581,1.94a1,1,0,0,1-.077.762Z"/></svg>
